;FLAVOR:Marlin
;TIME:14961
;Filament used: 12.3547m
;Layer height: 0.2
;Generated with Cura_SteamEngine 2.7.0
M190 S55
M104 S200
M109 S200
G28 ;Home
G1 Z15.0 F6000 ;Move the platform down 15mm
;Prime the extruder
G92 E0
G1 F200 E3
G92 E0
;LAYER_COUNT:165
;LAYER:0
M107
G0 F2400 X71.851 Y42.988 Z0.2
;TYPE:WALL-INNER
G1 F1500 X71.883 Y42.956 E0.00151
G1 X71.95 Y42.922 E0.004
G1 X72.116 Y42.904 E0.00956
G1 X147.884 Y42.904 E2.52961
G1 X148.05 Y42.922 E2.53517
G1 X148.117 Y42.956 E2.53766
G1 X148.149 Y42.988 E2.53917
G1 X148.182 Y43.053 E2.54159
G1 X148.2 Y43.22 E2.54718
G1 X148.2 Y93.987 E4.2357
G1 X148.182 Y94.152 E4.24122
G1 X148.153 Y94.214 E4.24349
G1 X148.114 Y94.253 E4.24533
G1 X148.085 Y94.271 E4.24646
G1 X148.033 Y94.289 E4.24829
G1 X147.906 Y94.304 E4.25255
G1 X97.094 Y94.304 E5.94256
G1 X96.967 Y94.289 E5.94682
G1 X96.886 Y94.253 E5.94976
G1 X96.847 Y94.214 E5.9516
G1 X96.818 Y94.152 E5.95387
G1 X96.8 Y93.987 E5.9594
G1 X96.8 Y88.002 E6.15846
G1 X96.714 Y87.254 E6.1835
G1 X96.435 Y86.45 E6.2118
G1 X95.981 Y85.728 E6.24017
G1 X95.376 Y85.123 E6.26863
G1 X94.653 Y84.669 E6.29702
G1 X93.848 Y84.39 E6.32536
G1 X93.102 Y84.304 E6.35034
G1 X72.094 Y84.304 E7.04907
G1 X71.967 Y84.289 E7.05332
G1 X71.886 Y84.253 E7.05627
G1 X71.847 Y84.214 E7.0581
G1 X71.818 Y84.152 E7.06038
G1 X71.8 Y83.987 E7.0659
G1 X71.8 Y78.22 E7.25771
G1 X71.818 Y78.053 E7.2633
G1 X71.851 Y77.988 E7.26572
G1 X71.883 Y77.956 E7.26723
G1 X71.95 Y77.922 E7.26973
G1 X72.116 Y77.904 E7.27528
G1 X93.103 Y77.904 E7.97331
G1 X93.85 Y77.817 E7.99832
G1 X94.655 Y77.538 E8.02666
G1 X95.375 Y77.084 E8.05497
G1 X95.981 Y76.481 E8.0834
G1 X96.435 Y75.754 E8.11191
G1 X96.714 Y74.954 E8.14009
G1 X96.8 Y74.206 E8.16513
G1 X96.8 Y53.002 E8.87038
G1 X96.714 Y52.254 E8.89542
G1 X96.435 Y51.45 E8.92373
G1 X95.981 Y50.728 E8.9521
G1 X95.376 Y50.123 E8.98055
G1 X94.653 Y49.669 E9.00895
G1 X93.848 Y49.39 E9.03729
G1 X93.102 Y49.304 E9.06226
G1 X71.8 Y49.304 E9.77077
G1 X71.8 Y43.22 E9.97312
G1 X71.818 Y43.053 E9.97871
G1 X71.851 Y42.988 E9.98114
G1 F2700 E3.48114
G0 F2400 X109.2 Y75.304
G1 F2700 E9.98114
G1 F1500 X109.2 Y92.904 E10.56651
G1 X136.8 Y92.904 E11.48449
G1 X136.8 Y75.304 E12.06987
G1 X109.2 Y75.304 E12.98785
G0 F2400 X109.6 Y75.704
G1 F1500 X109.6 Y92.504 E13.54662
G1 X136.4 Y92.504 E14.43799
G1 X136.4 Y75.704 E14.99676
G1 X109.6 Y75.704 E15.88814
G1 F2700 E9.38814
G0 F2400 X96.322 Y74.864
G1 F2700 E15.88814
G1 F1500 X96.4 Y74.183 E15.91093
G1 X96.4 Y53.025 E16.61465
G1 X96.322 Y52.343 E16.63748
G1 X96.072 Y51.624 E16.6628
G1 X95.666 Y50.979 E16.68815
G1 X95.125 Y50.438 E16.7136
G1 X94.479 Y50.032 E16.73897
G1 X93.759 Y49.782 E16.76432
G1 X93.079 Y49.704 E16.78709
G1 X71.4 Y49.704 E17.50814
G1 X71.4 Y43.195 E17.72463
G1 X71.425 Y42.966 E17.73229
G1 X71.466 Y42.848 E17.73644
G1 X71.537 Y42.736 E17.74085
G1 X71.631 Y42.642 E17.74528
G1 X71.746 Y42.57 E17.74979
G1 X71.861 Y42.529 E17.75385
G1 X72.091 Y42.504 E17.76154
G1 X147.909 Y42.504 E20.28326
G1 X148.139 Y42.529 E20.29096
G1 X148.254 Y42.57 E20.29502
G1 X148.369 Y42.642 E20.29953
G1 X148.463 Y42.736 E20.30395
G1 X148.534 Y42.848 E20.30836
G1 X148.575 Y42.966 E20.31252
G1 X148.6 Y43.195 E20.32018
G1 X148.6 Y94.013 E22.01039
G1 X148.575 Y94.241 E22.01802
G1 X148.532 Y94.362 E22.02229
G1 X148.467 Y94.466 E22.02637
G1 X148.366 Y94.567 E22.03112
G1 X148.26 Y94.634 E22.03529
G1 X148.124 Y94.681 E22.04008
G1 X147.926 Y94.704 E22.04671
G1 X97.074 Y94.704 E23.73805
G1 X96.876 Y94.681 E23.74468
G1 X96.74 Y94.634 E23.74947
G1 X96.634 Y94.567 E23.75364
G1 X96.533 Y94.466 E23.75839
G1 X96.468 Y94.362 E23.76247
G1 X96.425 Y94.241 E23.76674
G1 X96.4 Y94.013 E23.77437
G1 X96.4 Y88.025 E23.97353
G1 X96.322 Y87.343 E23.99636
G1 X96.072 Y86.624 E24.02168
G1 X95.666 Y85.979 E24.04703
G1 X95.125 Y85.438 E24.07248
G1 X94.479 Y85.032 E24.09785
G1 X93.759 Y84.782 E24.1232
G1 X93.079 Y84.704 E24.14597
G1 X72.074 Y84.704 E24.8446
G1 X71.876 Y84.681 E24.85123
G1 X71.74 Y84.634 E24.85601
G1 X71.634 Y84.567 E24.86018
G1 X71.533 Y84.466 E24.86493
G1 X71.468 Y84.362 E24.86901
G1 X71.425 Y84.241 E24.87328
G1 X71.4 Y84.013 E24.88091
G1 X71.4 Y78.195 E25.07442
G1 X71.425 Y77.966 E25.08208
G1 X71.466 Y77.848 E25.08624
G1 X71.537 Y77.736 E25.09065
G1 X71.631 Y77.642 E25.09507
G1 X71.746 Y77.57 E25.09958
G1 X71.861 Y77.529 E25.10364
G1 X72.091 Y77.504 E25.11134
G1 X93.08 Y77.504 E25.80943
G1 X93.76 Y77.425 E25.8322
G1 X94.48 Y77.175 E25.85755
G1 X95.124 Y76.769 E25.88287
G1 X95.666 Y76.23 E25.9083
G1 X96.072 Y75.58 E25.93379
G1 X96.322 Y74.864 E25.95901
G0 F2400 X95.93 Y74.774
G1 F1500 X96 Y74.16 E25.97957
G1 X96 Y53.048 E26.68175
G1 X95.93 Y52.433 E26.70234
G1 X95.709 Y51.799 E26.72467
G1 X95.351 Y51.23 E26.74703
G1 X94.874 Y50.753 E26.76947
G1 X94.305 Y50.395 E26.79183
G1 X93.67 Y50.174 E26.81419
G1 X93.056 Y50.104 E26.83474
G1 X71 Y50.104 E27.56833
G1 X71 Y43.169 E27.79899
G1 X71.032 Y42.877 E27.80876
G1 X71.103 Y42.674 E27.81591
G1 X71.223 Y42.484 E27.82339
G1 X71.38 Y42.327 E27.83077
G1 X71.568 Y42.209 E27.83815
G1 X71.776 Y42.136 E27.84548
G1 X72.065 Y42.104 E27.85516
G1 X147.935 Y42.104 E30.3786
G1 X148.224 Y42.136 E30.38827
G1 X148.432 Y42.209 E30.3956
G1 X148.62 Y42.327 E30.40299
G1 X148.777 Y42.484 E30.41037
G1 X148.897 Y42.674 E30.41785
G1 X148.968 Y42.877 E30.425
G1 X149 Y43.169 E30.43477
G1 X149 Y94.039 E32.12671
G1 X148.968 Y94.33 E32.13645
G1 X148.895 Y94.536 E32.14372
G1 X148.781 Y94.718 E32.15086
G1 X148.617 Y94.882 E32.15858
G1 X148.437 Y94.995 E32.16564
G1 X148.215 Y95.073 E32.17347
G1 X147.946 Y95.104 E32.18248
G1 X97.054 Y95.104 E33.87515
G1 X96.785 Y95.073 E33.88416
G1 X96.563 Y94.995 E33.89198
G1 X96.383 Y94.882 E33.89905
G1 X96.219 Y94.718 E33.90677
G1 X96.105 Y94.536 E33.91391
G1 X96.032 Y94.33 E33.92118
G1 X96 Y94.039 E33.93092
G1 X96 Y88.048 E34.13018
G1 X95.93 Y87.433 E34.15076
G1 X95.709 Y86.799 E34.1731
G1 X95.351 Y86.23 E34.19545
G1 X94.874 Y85.753 E34.21789
G1 X94.305 Y85.395 E34.24025
G1 X93.67 Y85.174 E34.26261
G1 X93.056 Y85.104 E34.28317
G1 X72.054 Y85.104 E34.9817
G1 X71.785 Y85.073 E34.9907
G1 X71.563 Y84.995 E34.99853
G1 X71.383 Y84.882 E35.0056
G1 X71.219 Y84.718 E35.01331
G1 X71.105 Y84.536 E35.02045
G1 X71.032 Y84.33 E35.02772
G1 X71 Y84.039 E35.03746
G1 X71 Y78.169 E35.2327
G1 X71.032 Y77.877 E35.24247
G1 X71.103 Y77.674 E35.24962
G1 X71.223 Y77.484 E35.25709
G1 X71.38 Y77.327 E35.26448
G1 X71.568 Y77.209 E35.27186
G1 X71.776 Y77.136 E35.27919
G1 X72.065 Y77.104 E35.28886
G1 X93.057 Y77.104 E35.98706
G1 X93.67 Y77.033 E36.00759
G1 X94.305 Y76.812 E36.02995
G1 X94.873 Y76.454 E36.05228
G1 X95.351 Y75.979 E36.07469
G1 X95.709 Y75.406 E36.09717
G1 X95.93 Y74.774 E36.11943
G1 F2700 E29.61943
G0 F2400 X110 Y76.104
G1 F2700 E36.11943
G1 F1500 X110 Y92.104 E36.6516
G1 X136 Y92.104 E37.51636
G1 X136 Y76.104 E38.04852
G1 X110 Y76.104 E38.91329
G0 F2400 X110.4 Y76.504
G1 F1500 X110.4 Y91.704 E39.41884
G1 X135.6 Y91.704 E40.25699
G1 X135.6 Y76.504 E40.76255
G1 X110.4 Y76.504 E41.6007
G1 F2700 E35.1007
G0 F2400 X95.538 Y74.684
G1 F2700 E41.6007
G1 F1500 X95.6 Y74.137 E41.61901
G1 X95.6 Y53.071 E42.31967
G1 X95.538 Y52.523 E42.33801
G1 X95.346 Y51.974 E42.35736
G1 X95.036 Y51.481 E42.37673
G1 X94.623 Y51.068 E42.39615
G1 X94.13 Y50.758 E42.41552
G1 X93.58 Y50.566 E42.4349
G1 X93.033 Y50.504 E42.45321
G1 X70.6 Y50.504 E43.19933
G1 X70.6 Y43.143 E43.44416
G1 X70.639 Y42.79 E43.45597
G1 X70.742 Y42.497 E43.4663
G1 X70.908 Y42.233 E43.47668
G1 X71.129 Y42.012 E43.48707
G1 X71.393 Y41.846 E43.49744
G1 X71.687 Y41.743 E43.50781
G1 X72.039 Y41.704 E43.51958
G1 X147.961 Y41.704 E46.04476
G1 X148.313 Y41.743 E46.05654
G1 X148.607 Y41.846 E46.0669
G1 X148.871 Y42.012 E46.07727
G1 X149.092 Y42.233 E46.08767
G1 X149.258 Y42.497 E46.09804
G1 X149.361 Y42.79 E46.10837
G1 X149.4 Y43.143 E46.12018
G1 X149.4 Y94.065 E47.81386
G1 X149.361 Y94.417 E47.82563
G1 X149.258 Y94.71 E47.83596
G1 X149.093 Y94.972 E47.84626
G1 X148.869 Y95.196 E47.8568
G1 X148.609 Y95.359 E47.86701
G1 X148.308 Y95.464 E47.87761
G1 X147.966 Y95.504 E47.88906
G1 X97.034 Y95.504 E49.58307
G1 X96.692 Y95.464 E49.59452
G1 X96.391 Y95.359 E49.60512
G1 X96.131 Y95.196 E49.61533
G1 X95.907 Y94.972 E49.62586
G1 X95.742 Y94.71 E49.63616
G1 X95.639 Y94.417 E49.64649
G1 X95.6 Y94.065 E49.65827
G1 X95.6 Y88.071 E49.85763
G1 X95.538 Y87.523 E49.87598
G1 X95.346 Y86.974 E49.89532
G1 X95.036 Y86.481 E49.91469
G1 X94.623 Y86.068 E49.93412
G1 X94.13 Y85.758 E49.95349
G1 X93.58 Y85.566 E49.97286
G1 X93.033 Y85.504 E49.99117
G1 X72.034 Y85.504 E50.6896
G1 X71.692 Y85.464 E50.70105
G1 X71.391 Y85.359 E50.71166
G1 X71.131 Y85.196 E50.72186
G1 X70.907 Y84.972 E50.7324
G1 X70.742 Y84.71 E50.7427
G1 X70.639 Y84.417 E50.75303
G1 X70.6 Y84.065 E50.76481
G1 X70.6 Y78.143 E50.96177
G1 X70.639 Y77.79 E50.97358
G1 X70.742 Y77.497 E50.98391
G1 X70.908 Y77.233 E50.99429
G1 X71.129 Y77.012 E51.00468
G1 X71.393 Y76.846 E51.01505
G1 X71.687 Y76.743 E51.02542
G1 X72.039 Y76.704 E51.03719
G1 X93.034 Y76.704 E51.73549
G1 X93.58 Y76.641 E51.75377
G1 X94.13 Y76.449 E51.77315
G1 X94.622 Y76.139 E51.79249
G1 X95.036 Y75.728 E51.81189
G1 X95.346 Y75.232 E51.83135
G1 X95.538 Y74.684 E51.85066
G0 F2400 X95.146 Y74.594
;TYPE:WALL-OUTER
G1 F1500 X95.2 Y74.115 E51.86669
G1 X95.2 Y53.093 E52.56589
G1 X95.146 Y52.613 E52.58195
G1 X94.983 Y52.149 E52.59831
G1 X94.721 Y51.732 E52.61469
G1 X94.372 Y51.383 E52.6311
G1 X93.955 Y51.121 E52.64748
G1 X93.49 Y50.958 E52.66387
G1 X93.011 Y50.904 E52.67991
G1 X70.2 Y50.904 E53.4386
G1 X70.2 Y43.117 E53.6976
G1 X70.246 Y42.703 E53.71145
G1 X70.381 Y42.32 E53.72496
G1 X70.593 Y41.982 E53.73823
G1 X70.878 Y41.697 E53.75164
G1 X71.216 Y41.485 E53.76491
G1 X71.6 Y41.35 E53.77844
G1 X72.013 Y41.304 E53.79227
G1 X147.987 Y41.304 E56.31917
G1 X148.4 Y41.35 E56.33299
G1 X148.784 Y41.485 E56.34653
G1 X149.122 Y41.697 E56.3598
G1 X149.407 Y41.982 E56.37321
G1 X149.619 Y42.32 E56.38648
G1 X149.754 Y42.703 E56.39998
G1 X149.8 Y43.117 E56.41384
G1 X149.8 Y94.091 E58.10924
G1 X149.754 Y94.504 E58.12306
G1 X149.619 Y94.887 E58.13657
G1 X149.408 Y95.223 E58.14976
G1 X149.12 Y95.511 E58.16331
G1 X148.784 Y95.722 E58.17651
G1 X148.401 Y95.856 E58.19
G1 X147.986 Y95.904 E58.2039
G1 X97.014 Y95.904 E59.89923
G1 X96.599 Y95.856 E59.91313
G1 X96.216 Y95.722 E59.92662
G1 X95.88 Y95.511 E59.93982
G1 X95.592 Y95.223 E59.95337
G1 X95.381 Y94.887 E59.96656
G1 X95.246 Y94.504 E59.98007
G1 X95.2 Y94.091 E59.99389
G1 X95.2 Y88.093 E60.19339
G1 X95.146 Y87.613 E60.20945
G1 X94.983 Y87.149 E60.22581
G1 X94.721 Y86.732 E60.24219
G1 X94.372 Y86.383 E60.2586
G1 X93.955 Y86.121 E60.27498
G1 X93.49 Y85.958 E60.29137
G1 X93.011 Y85.904 E60.30741
G1 X72.014 Y85.904 E61.00577
G1 X71.599 Y85.856 E61.01966
G1 X71.216 Y85.722 E61.03316
G1 X70.88 Y85.511 E61.04636
G1 X70.592 Y85.223 E61.0599
G1 X70.381 Y84.887 E61.0731
G1 X70.246 Y84.504 E61.08661
G1 X70.2 Y84.091 E61.10043
G1 X70.2 Y78.117 E61.29912
G1 X70.246 Y77.703 E61.31298
G1 X70.381 Y77.32 E61.32648
G1 X70.593 Y76.982 E61.33975
G1 X70.878 Y76.697 E61.35316
G1 X71.216 Y76.485 E61.36643
G1 X71.6 Y76.35 E61.37997
G1 X72.013 Y76.304 E61.39379
G1 X93.011 Y76.304 E62.09219
G1 X93.49 Y76.249 E62.10822
G1 X93.955 Y76.086 E62.12461
G1 X94.372 Y75.824 E62.14099
G1 X94.721 Y75.477 E62.15736
G1 X94.983 Y75.058 E62.1738
G1 X95.146 Y74.594 E62.19015
G0 F2400 X95.168 Y74.396
G1 F2700 E55.69015
G0 F2400 X110.8 Y76.904
G1 F2700 E62.19015
G1 F1500 X110.8 Y91.304 E62.6691
G1 X135.2 Y91.304 E63.48065
G1 X135.2 Y76.904 E63.95959
G1 X110.8 Y76.904 E64.77114
G0 F2400 X110.8 Y77.104
G1 F2700 E58.27114
G0 F2400 X72.243 Y84.123
;TYPE:SKIN
G1 F2700 E64.77114
G1 F1500 X71.979 Y83.859 E64.78356
G0 F2400 X71.979 Y83.293
G1 F1500 X72.809 Y84.123 E64.8226
G1 X72.879 Y84.193
G0 F2400 X73.375 Y84.123
G1 F1500 X71.979 Y82.727 E64.88826
G1 X71.909 Y82.657
G0 F2400 X71.979 Y82.162
G1 F1500 X73.94 Y84.123 E64.9805
G1 X74.01 Y84.193
G0 F2400 X74.506 Y84.123
G1 F1500 X71.979 Y81.596 E65.09936
G1 X71.909 Y81.526
G0 F2400 X71.979 Y81.03
G1 F1500 X75.072 Y84.123 E65.24485
G1 X75.142 Y84.193
G0 F2400 X75.637 Y84.123
G1 F1500 X71.979 Y80.465 E65.41691
G1 X71.909 Y80.395
G0 F2400 X71.979 Y79.899
G1 F1500 X76.203 Y84.123 E65.61559
G1 X76.273 Y84.193
G0 F2400 X76.769 Y84.123
G1 F1500 X71.979 Y79.333 E65.8409
G1 X71.909 Y79.263
G0 F2400 X71.979 Y78.768
G1 F1500 X77.334 Y84.123 E66.09278
G1 X77.404 Y84.193
G0 F2400 X77.9 Y84.123
G1 F1500 X71.982 Y78.204 E66.37117
G1 X71.912 Y78.134
G0 F2400 X72.426 Y78.083
G1 F1500 X78.466 Y84.123 E66.65527
G1 X78.536 Y84.193
G0 F2400 X79.031 Y84.123
G1 F1500 X72.992 Y78.083 E66.93935
G1 X72.922 Y78.013
G0 F2400 X73.558 Y78.083
G1 F1500 X79.597 Y84.123 E67.22343
G1 X79.667 Y84.193
G0 F2400 X80.163 Y84.123
G1 F1500 X74.123 Y78.083 E67.50754
G1 X74.053 Y78.013
G0 F2400 X74.689 Y78.083
G1 F1500 X80.728 Y84.123 E67.79162
G1 X80.798 Y84.193
G0 F2400 X81.294 Y84.123
G1 F1500 X75.255 Y78.083 E68.0757
G1 X75.185 Y78.013
G0 F2400 X75.82 Y78.083
G1 F1500 X81.86 Y84.123 E68.3598
G1 X81.93 Y84.193
G0 F2400 X82.426 Y84.123
G1 F1500 X76.386 Y78.083 E68.6439
G1 X76.316 Y78.013
G0 F2400 X76.952 Y78.083
G1 F1500 X82.992 Y84.123 E68.928
G1 X83.062 Y84.193
G0 F2400 X83.558 Y84.123
G1 F1500 X77.517 Y78.083 E69.21213
G1 X77.447 Y78.013
G0 F2400 X78.083 Y78.083
G1 F1500 X84.123 Y84.123 E69.49623
G1 X84.193 Y84.193
G0 F2400 X84.689 Y84.123
G1 F1500 X78.649 Y78.083 E69.78034
G1 X78.579 Y78.013
G0 F2400 X79.215 Y78.083
G1 F1500 X85.255 Y84.123 E70.06444
G1 X85.325 Y84.193
G0 F2400 X85.82 Y84.123
G1 F1500 X79.78 Y78.083 E70.34854
G1 X79.71 Y78.013
G0 F2400 X80.346 Y78.083
G1 F1500 X86.386 Y84.123 E70.63265
G1 X86.456 Y84.193
G0 F2400 X86.952 Y84.123
G1 F1500 X80.912 Y78.083 E70.91675
G1 X80.842 Y78.013
G0 F2400 X81.477 Y78.083
G1 F1500 X87.517 Y84.123 E71.20085
G1 X87.587 Y84.193
G0 F2400 X88.083 Y84.123
G1 F1500 X82.043 Y78.083 E71.48496
G1 X81.973 Y78.013
G0 F2400 X82.609 Y78.083
G1 F1500 X88.649 Y84.123 E71.76906
G1 X88.719 Y84.193
G0 F2400 X89.214 Y84.123
G1 F1500 X83.174 Y78.083 E72.05316
G1 X83.104 Y78.013
G0 F2400 X83.74 Y78.083
G1 F1500 X89.78 Y84.123 E72.33727
G1 X89.85 Y84.193
G0 F2400 X90.346 Y84.123
G1 F1500 X84.306 Y78.083 E72.62137
G1 X84.236 Y78.013
G0 F2400 X84.871 Y78.083
G1 F1500 X90.912 Y84.123 E72.9055
G1 X90.982 Y84.193
G0 F2400 X91.477 Y84.123
G1 F1500 X85.437 Y78.083 E73.1896
G1 X85.367 Y78.013
G0 F2400 X86.003 Y78.083
G1 F1500 X92.043 Y84.123 E73.4737
G1 X92.113 Y84.193
G0 F2400 X92.609 Y84.123
G1 F1500 X86.568 Y78.083 E73.75783
G1 X86.498 Y78.013
G0 F2400 X87.134 Y78.083
G1 F1500 X93.183 Y84.132 E74.04235
G1 X93.253 Y84.202
G0 F2400 X93.823 Y84.206
G1 F1500 X87.7 Y78.083 E74.33036
G1 X87.63 Y78.013
G0 F2400 X88.266 Y78.083
G1 F1500 X94.664 Y84.482 E74.63133
G1 X94.734 Y84.552
G1 F2700 E68.13133
G0 F2400 X96.619 Y86.437
G1 F2700 E74.63133
G1 F1500 X104.306 Y94.123 E74.99288
G1 X104.376 Y94.193
G0 F2400 X104.871 Y94.123
G1 F1500 X88.831 Y78.083 E75.74735
G1 X88.761 Y78.013
G0 F2400 X89.397 Y78.083
G1 F1500 X105.437 Y94.123 E76.50182
G1 X105.507 Y94.193
G0 F2400 X106.003 Y94.123
G1 F1500 X89.963 Y78.083 E77.25629
G1 X89.893 Y78.013
G0 F2400 X90.528 Y78.083
G1 F1500 X106.568 Y94.123 E78.01077
G1 X106.638 Y94.193
G0 F2400 X107.134 Y94.123
G1 F1500 X91.094 Y78.083 E78.76524
G1 X91.024 Y78.013
G0 F2400 X91.66 Y78.083
G1 F1500 X107.7 Y94.123 E79.51971
G1 X107.77 Y94.193
G0 F2400 X108.265 Y94.123
G1 F1500 X92.225 Y78.083 E80.27418
G1 X92.155 Y78.013
G0 F2400 X92.791 Y78.083
G1 F1500 X108.831 Y94.123 E81.02866
G1 X108.901 Y94.193
G0 F2400 X109.397 Y94.123
G1 F1500 X93.331 Y78.058 E81.78433
G1 X93.261 Y77.988
G0 F2400 X93.838 Y77.999
G1 F1500 X109.962 Y94.123 E82.54275
G1 X110.032 Y94.193
G0 F2400 X110.528 Y94.123
G1 F1500 X109.489 Y93.084 E82.59162
G1 X109.419 Y93.014
G0 F2400 X110.054 Y93.084
G1 F1500 X111.094 Y94.123 E82.64052
G1 X111.164 Y94.193
G0 F2400 X111.659 Y94.123
G1 F1500 X110.62 Y93.084 E82.68939
G1 X110.55 Y93.014
G0 F2400 X111.186 Y93.084
G1 F1500 X112.225 Y94.123 E82.73826
G1 X112.295 Y94.193
G0 F2400 X112.791 Y94.123
G1 F1500 X111.751 Y93.084 E82.78716
G1 X111.681 Y93.014
G0 F2400 X112.317 Y93.084
G1 F1500 X113.356 Y94.123 E82.83603
