;FLAVOR:Marlin
;TIME:3057
;Filament used: 2.25622m
;Layer height: 0.2
;Generated with Cura_SteamEngine 2.7.0
M190 S50
M104 S200
M109 S200
G28 ;Home
G1 Z15.0 F6000 ;Move the platform down 15mm
;Prime the extruder
G92 E0
G1 F200 E3
G92 E0
;LAYER_COUNT:138
;LAYER:0
M107
G0 F1500 X75.693 Y90.856 Z0.2
G1 F2700 E-6.5
G0 F1500 X76.501 Y90.6
;TYPE:SKIRT
G1 F2700 E0
G1 F900 X117.723 Y90.625 E1.37105
G1 X118.055 Y90.665 E1.38217
G1 X118.329 Y90.764 E1.39186
G1 X118.732 Y90.958 E1.40674
G1 X119.014 Y91.137 E1.41785
G1 X119.221 Y91.348 E1.42768
G1 X119.497 Y91.695 E1.44243
G1 X119.672 Y91.979 E1.45352
G1 X119.766 Y92.254 E1.46319
G1 X119.865 Y92.687 E1.47796
G1 X119.9 Y92.999 E1.4884
G1 X119.9 Y93.101 E1.49179
G1 X142.723 Y93.125 E2.25089
G1 X143.055 Y93.165 E2.26201
G1 X143.465 Y93.338 E2.27681
G1 X144.024 Y93.688 E2.29875
G1 X144.284 Y93.898 E2.30987
G1 X144.542 Y94.268 E2.32487
G1 X144.737 Y94.673 E2.33982
G1 X144.845 Y94.989 E2.35093
G1 X144.876 Y95.277 E2.36056
G1 X144.9 Y108.496 E2.80023
G1 X144.865 Y108.81 E2.81074
G1 X144.766 Y109.245 E2.82557
G1 X144.654 Y109.559 E2.83666
G1 X144.497 Y109.805 E2.84637
G1 X144.221 Y110.152 E2.86111
G1 X143.983 Y110.387 E2.87224
G1 X143.732 Y110.542 E2.88205
G1 X143.329 Y110.736 E2.89693
G1 X143.013 Y110.844 E2.90803
G1 X142.723 Y110.875 E2.91773
G1 X119.9 Y110.899 E3.67683
G1 X119.9 Y114.6 E3.79993
G1 X141.5 Y114.6 E4.51835
G1 X141.832 Y114.64 E4.52947
G1 X142.144 Y114.757 E4.54055
G1 X142.421 Y114.945 E4.55169
G1 X142.644 Y115.193 E4.56278
G1 X142.803 Y115.487 E4.5739
G1 X142.887 Y115.811 E4.58503
G1 X142.9 Y116 E4.59133
G1 X142.9 Y128 E4.99045
G1 X142.86 Y128.332 E5.00157
G1 X142.743 Y128.644 E5.01266
G1 X142.555 Y128.921 E5.02379
G1 X142.307 Y129.144 E5.03488
G1 X142.013 Y129.303 E5.046
G1 X141.689 Y129.387 E5.05713
G1 X141.499 Y129.4 E5.06347
G1 X114.277 Y129.375 E5.96887
G1 X113.945 Y129.335 E5.98
G1 X113.671 Y129.236 E5.98969
G1 X113.268 Y129.042 E6.00456
G1 X112.986 Y128.863 E6.01567
G1 X112.779 Y128.652 E6.0255
G1 X112.503 Y128.305 E6.04025
G1 X112.328 Y128.021 E6.05134
G1 X112.234 Y127.746 E6.06101
G1 X112.135 Y127.313 E6.07578
G1 X112.1 Y127.001 E6.08623
G1 X112.1 Y113.4 E6.5386
G1 X76.5 Y113.4 E7.72266
G1 X76.168 Y113.36 E7.73378
G1 X75.856 Y113.243 E7.74486
G1 X75.579 Y113.055 E7.756
G1 X75.356 Y112.807 E7.76709
G1 X75.197 Y112.513 E7.77821
G1 X75.113 Y112.189 E7.78934
G1 X75.1 Y112 E7.79564
G1 X75.1 Y92 E8.46084
G1 X75.14 Y91.668 E8.47197
G1 X75.257 Y91.356 E8.48305
G1 X75.445 Y91.079 E8.49418
G1 X75.693 Y90.856 E8.50528
G1 X75.987 Y90.697 E8.51639
G1 X76.311 Y90.613 E8.52753
G1 X76.501 Y90.6 E8.53386
G0 F1500 X76.501 Y91
G1 F900 X117.723 Y91.025 E9.90491
G1 X118.002 Y91.065 E9.91428
G1 X118.156 Y91.124 E9.91977
G1 X118.559 Y91.318 E9.93465
G1 X118.793 Y91.475 E9.94402
G1 X118.908 Y91.597 E9.94959
G1 X119.184 Y91.944 E9.96434
G1 X119.326 Y92.187 E9.9737
G1 X119.376 Y92.343 E9.97915
G1 X119.475 Y92.776 E9.99392
G1 X119.5 Y92.999 E10.00139
G1 X119.5 Y93.501 E10.01808
G1 X142.723 Y93.525 E10.79048
G1 X143.002 Y93.565 E10.79986
G1 X143.253 Y93.677 E10.809
G1 X143.812 Y94.027 E10.83094
G1 X144.027 Y94.209 E10.84031
G1 X144.182 Y94.441 E10.84959
G1 X144.377 Y94.846 E10.86454
G1 X144.462 Y95.115 E10.87392
G1 X144.476 Y95.278 E10.87936
G1 X144.5 Y108.497 E11.31903
G1 X144.475 Y108.721 E11.32652
G1 X144.376 Y109.156 E11.34136
G1 X144.275 Y109.419 E11.35073
G1 X144.184 Y109.556 E11.3562
G1 X143.908 Y109.903 E11.37095
G1 X143.703 Y110.097 E11.38034
G1 X143.559 Y110.182 E11.3859
G1 X143.156 Y110.376 E11.40077
G1 X142.887 Y110.461 E11.41016
G1 X142.723 Y110.475 E11.41563
G1 X119.5 Y110.499 E12.18803
G1 X119.5 Y115 E12.33774
G1 X141.5 Y115 E13.06946
G1 X141.779 Y115.04 E13.07883
G1 X142.036 Y115.156 E13.08821
G1 X142.251 Y115.339 E13.0976
G1 X142.405 Y115.575 E13.10697
G1 X142.488 Y115.845 E13.11637
G1 X142.5 Y116 E13.12154
G1 X142.5 Y128 E13.52066
G1 X142.46 Y128.279 E13.53004
G1 X142.344 Y128.536 E13.53941
G1 X142.161 Y128.751 E13.54881
G1 X141.925 Y128.905 E13.55818
G1 X141.655 Y128.988 E13.56757
G1 X141.499 Y129 E13.57278
G1 X114.277 Y128.975 E14.47818
G1 X113.998 Y128.935 E14.48756
G1 X113.844 Y128.876 E14.49304
G1 X113.441 Y128.682 E14.50792
G1 X113.207 Y128.525 E14.51729
G1 X113.092 Y128.403 E14.52287
G1 X112.816 Y128.056 E14.53762
G1 X112.674 Y127.813 E14.54698
G1 X112.624 Y127.657 E14.55243
G1 X112.525 Y127.224 E14.5672
G1 X112.5 Y127.001 E14.57466
G1 X112.5 Y113 E15.04034
G1 X76.5 Y113 E16.2377
G1 X76.221 Y112.96 E16.24708
G1 X75.964 Y112.844 E16.25645
G1 X75.749 Y112.661 E16.26585
G1 X75.595 Y112.425 E16.27522
G1 X75.512 Y112.155 E16.28461
G1 X75.5 Y112 E16.28978
G1 X75.5 Y92 E16.95499
G1 X75.54 Y91.721 E16.96436
G1 X75.656 Y91.464 E16.97374
G1 X75.839 Y91.249 E16.98313
G1 X76.075 Y91.095 E16.9925
G1 X76.345 Y91.012 E17.0019
G1 X76.501 Y91 E17.0071
G0 F1500 X76.5 Y91.4
G1 F900 X117.722 Y91.425 E18.37815
G1 X117.982 Y91.484 E18.38702
G1 X118.385 Y91.678 E18.40189
G1 X118.595 Y91.846 E18.41084
G1 X118.871 Y92.193 E18.42559
G1 X118.986 Y92.432 E18.43441
G1 X119.085 Y92.865 E18.44918
G1 X119.1 Y92.999 E18.45367
G1 X119.1 Y93.901 E18.48367
G1 X142.723 Y93.925 E19.26937
G1 X142.937 Y93.965 E19.27661
G1 X143.04 Y94.016 E19.28043
G1 X143.599 Y94.366 E19.30237
G1 X143.76 Y94.514 E19.30964
G1 X143.822 Y94.615 E19.31359
G1 X144.017 Y95.02 E19.32854
G1 X144.076 Y95.279 E19.33737
G1 X144.1 Y108.498 E19.77704
G1 X144.085 Y108.632 E19.78152
G1 X143.986 Y109.067 E19.79636
G1 X143.871 Y109.307 E19.80521
G1 X143.595 Y109.654 E19.81996
G1 X143.385 Y109.822 E19.8289
G1 X142.982 Y110.016 E19.84378
G1 X142.723 Y110.075 E19.85261
G1 X119.1 Y110.099 E20.63832
G1 X119.1 Y115.4 E20.81463
G1 X141.5 Y115.4 E21.55966
G1 X141.715 Y115.44 E21.56693
G1 X141.901 Y115.553 E21.57417
G1 X142.034 Y115.726 E21.58143
G1 X142.1 Y116 E21.5908
G1 X142.1 Y128 E21.98992
G1 X142.06 Y128.215 E21.9972
G1 X141.947 Y128.401 E22.00444
G1 X141.774 Y128.534 E22.01169
G1 X141.499 Y128.6 E22.0211
G1 X114.277 Y128.575 E22.92651
G1 X114.018 Y128.516 E22.93534
G1 X113.615 Y128.322 E22.95022
G1 X113.405 Y128.154 E22.95916
G1 X113.129 Y127.807 E22.97391
G1 X113.014 Y127.568 E22.98273
G1 X112.915 Y127.135 E22.99751
G1 X112.9 Y127.001 E23.00199
G1 X112.9 Y112.6 E23.48097
G1 X76.5 Y112.6 E24.69164
G1 X76.285 Y112.56 E24.69891
G1 X76.099 Y112.447 E24.70615
G1 X75.966 Y112.274 E24.71341
G1 X75.9 Y112 E24.72278
G1 X75.9 Y92 E25.38799
G1 X75.94 Y91.785 E25.39526
G1 X76.053 Y91.599 E25.4025
G1 X76.226 Y91.466 E25.40976
G1 X76.5 Y91.4 E25.41913
G0 F1500 X76.3 Y92
G1 F900 X76.339 Y91.881 E25.42329
G1 X76.5 Y91.8 E25.42929
G1 X117.722 Y91.825 E26.80034
G1 X117.809 Y91.845 E26.80331
G1 X118.212 Y92.039 E26.81818
G1 X118.282 Y92.095 E26.82116
G1 X118.558 Y92.442 E26.83591
G1 X118.596 Y92.521 E26.83883
G1 X118.695 Y92.954 E26.8536
G1 X118.7 Y92.999 E26.85511
G1 X118.7 Y94.3 E26.89838
G1 X142.722 Y94.325 E27.69735
G1 X142.828 Y94.355 E27.70102
G1 X143.387 Y94.705 E27.72295
G1 X143.461 Y94.788 E27.72665
G1 X143.656 Y95.193 E27.7416
G1 X143.676 Y95.28 E27.74457
G1 X143.7 Y108.499 E28.18424
G1 X143.695 Y108.543 E28.18571
G1 X143.596 Y108.978 E28.20055
G1 X143.558 Y109.058 E28.20349
G1 X143.282 Y109.405 E28.21824
G1 X143.212 Y109.461 E28.22122
G1 X142.809 Y109.655 E28.2361
G1 X142.722 Y109.675 E28.23907
G1 X118.7 Y109.7 E29.03804
G1 X118.7 Y115.8 E29.24093
G1 X141.5 Y115.8 E29.99926
G1 X141.619 Y115.839 E30.00343
G1 X141.7 Y116 E30.00942
G1 X141.7 Y128 E30.40854
G1 X141.661 Y128.119 E30.41271
G1 X141.5 Y128.2 E30.4187
G1 X114.278 Y128.175 E31.32411
G1 X114.191 Y128.155 E31.32708
G1 X113.788 Y127.961 E31.34196
G1 X113.718 Y127.905 E31.34494
G1 X113.442 Y127.558 E31.35968
G1 X113.404 Y127.479 E31.3626
G1 X113.305 Y127.046 E31.37737
G1 X113.3 Y127.001 E31.37888
G1 X113.3 Y112.2 E31.87116
G1 X76.5 Y112.2 E33.09513
G1 X76.381 Y112.161 E33.0993
G1 X76.3 Y112 E33.10529
G1 X76.3 Y92 E33.7705
G0 F1500 X76.7 Y92.2
;TYPE:WALL-OUTER
G1 F900 X117.487 Y92.2 E35.12708
G1 X117.678 Y92.221 E35.13347
G1 X117.847 Y92.281 E35.13943
G1 X118 Y92.377 E35.14544
G1 X118.123 Y92.5 E35.15123
G1 X118.219 Y92.653 E35.15723
G1 X118.279 Y92.822 E35.1632
G1 X118.3 Y93.013 E35.16959
G1 X118.3 Y94.7 E35.2257
G1 X142.487 Y94.7 E36.03016
G1 X142.678 Y94.721 E36.03655
G1 X142.847 Y94.781 E36.04252
G1 X143 Y94.877 E36.04853
G1 X143.123 Y95 E36.05431
G1 X143.219 Y95.153 E36.06032
G1 X143.279 Y95.322 E36.06628
G1 X143.3 Y95.513 E36.07267
G1 X143.3 Y108.487 E36.50419
G1 X143.279 Y108.678 E36.51058
G1 X143.219 Y108.847 E36.51655
G1 X143.123 Y109 E36.52256
G1 X143 Y109.123 E36.52834
G1 X142.847 Y109.219 E36.53435
G1 X142.678 Y109.279 E36.54031
G1 X142.487 Y109.3 E36.5467
G1 X118.3 Y109.3 E37.35117
G1 X118.3 Y116.2 E37.58066
G1 X141.3 Y116.2 E38.34564
G1 X141.3 Y127.8 E38.73146
G1 X114.513 Y127.8 E39.6224
G1 X114.322 Y127.779 E39.62879
G1 X114.153 Y127.719 E39.63476
G1 X114 Y127.623 E39.64076
G1 X113.877 Y127.5 E39.64655
G1 X113.781 Y127.347 E39.65256
G1 X113.721 Y127.178 E39.65852
G1 X113.7 Y126.987 E39.66491
G1 X113.7 Y111.8 E40.17004
G1 X76.7 Y111.8 E41.40066
G1 X76.7 Y92.2 E42.05256
G0 F1500 X76.9 Y92.2
G1 F2700 E35.55256
G0 F1500 X82.3 Y95.3
G1 F2700 E42.05256
G1 F900 X82.3 Y108.7 E42.49824
G1 X105.7 Y108.7 E43.27653
G1 X105.7 Y95.3 E43.72222
G1 X82.3 Y95.3 E44.5005
G0 F1500 X82.3 Y95.5
G0 X81.9 Y94.9
;TYPE:WALL-INNER
G1 F900 X81.9 Y109.1 E44.9728
G1 X106.1 Y109.1 E45.77769
G1 X106.1 Y94.9 E46.24999
G1 X81.9 Y94.9 E47.05488
G1 F2700 E40.55488
G0 F1500 X77.1 Y92.6
G1 F2700 E47.05488
G1 F900 X117.461 Y92.6 E48.3973
G1 X117.589 Y92.614 E48.40158
G1 X117.671 Y92.643 E48.40447
G1 X117.749 Y92.692 E48.40753
G1 X117.808 Y92.751 E48.41031
G1 X117.857 Y92.829 E48.41337
G1 X117.886 Y92.911 E48.41627
G1 X117.9 Y93.039 E48.42055
G1 X117.9 Y95.1 E48.4891
G1 X142.461 Y95.1 E49.306
G1 X142.589 Y95.114 E49.31028
G1 X142.671 Y95.143 E49.31318
G1 X142.749 Y95.192 E49.31624
G1 X142.808 Y95.251 E49.31902
G1 X142.857 Y95.329 E49.32208
G1 X142.886 Y95.411 E49.32497
G1 X142.9 Y95.539 E49.32925
G1 X142.9 Y108.461 E49.75904
G1 X142.886 Y108.589 E49.76332
G1 X142.857 Y108.671 E49.76622
G1 X142.808 Y108.749 E49.76928
G1 X142.749 Y108.808 E49.77206
G1 X142.671 Y108.857 E49.77512
G1 X142.589 Y108.886 E49.77801
G1 X142.461 Y108.9 E49.7823
G1 X117.9 Y108.9 E50.5992
G1 X117.9 Y116.6 E50.8553
G1 X140.9 Y116.6 E51.62028
G1 X140.9 Y127.4 E51.97949
G1 X114.539 Y127.4 E52.85626
G1 X114.411 Y127.386 E52.86055
G1 X114.329 Y127.357 E52.86344
G1 X114.251 Y127.308 E52.8665
G1 X114.192 Y127.249 E52.86928
G1 X114.143 Y127.171 E52.87234
G1 X114.114 Y127.089 E52.87523
G1 X114.1 Y126.961 E52.87952
G1 X114.1 Y111.4 E53.39708
G1 X77.1 Y111.4 E54.6277
G1 X77.1 Y92.6 E55.25299
G0 F1500 X77.5 Y93
G1 F900 X117.436 Y93 E56.58127
G1 X117.494 Y93.006 E56.58321
G1 X117.5 Y93.064 E56.58515
G1 X117.5 Y95.5 E56.66617
G1 X142.436 Y95.5 E57.49555
G1 X142.494 Y95.506 E57.49749
G1 X142.5 Y95.564 E57.49942
G1 X142.5 Y108.436 E57.92755
G1 X142.494 Y108.494 E57.92949
G1 X142.436 Y108.5 E57.93143
G1 X117.5 Y108.5 E58.7608
G1 X117.5 Y117 E59.04351
G1 X140.5 Y117 E59.8085
G1 X140.5 Y127 E60.1411
G1 X114.564 Y127 E61.00373
G1 X114.506 Y126.994 E61.00567
G1 X114.5 Y126.936 E61.00761
G1 X114.5 Y111 E61.53765
G1 X77.5 Y111 E62.76827
G1 X77.5 Y93 E63.36695
G1 F2700 E56.86695
G0 F1500 X81.5 Y94.5
G1 F2700 E63.36695
G1 F900 X81.5 Y109.5 E63.86585
G1 X106.5 Y109.5 E64.69736
G1 X106.5 Y94.5 E65.19626
G1 X81.5 Y94.5 E66.02776
G0 F1500 X81.1 Y94.1
G1 F900 X81.1 Y109.9 E66.55327
G1 X106.9 Y109.9 E67.41139
G1 X106.9 Y94.1 E67.9369
G1 X81.1 Y94.1 E68.79501
G1 F2700 E62.29501
G0 F1500 X77.9 Y93.4
G1 F2700 E68.79501
G1 F900 X117.1 Y93.4 E70.0988
G1 X117.1 Y95.9 E70.18195
G1 X142.1 Y95.9 E71.01346
G1 X142.1 Y108.1 E71.41923
G1 X117.1 Y108.1 E72.25073
G1 X117.1 Y117.4 E72.56005
G1 X140.1 Y117.4 E73.32504
G1 X140.1 Y126.6 E73.63103
G1 X114.9 Y126.6 E74.46919
G1 X114.9 Y110.6 E75.00135
G1 X77.9 Y110.6 E76.23197
G1 X77.9 Y93.4 E76.80405
G1 F2700 E70.30405
G0 F1500 X78.126 Y110.37
G1 F2700 E76.80405
G1 F900 X78.409 Y110.087 E76.82182
;TYPE:SKIN
G1 X78.81 Y110.488
G0 F1500 X79.306 Y110.418
G1 F900 X78.079 Y109.192 E76.87951
G1 X78.009 Y109.122
G0 F1500 X78.079 Y108.626
G1 F900 X79.871 Y110.418 E76.9638
G1 X79.941 Y110.488
G0 F1500 X80.437 Y110.418
G1 F900 X78.079 Y108.06 E77.07471
G1 X78.009 Y107.99
G0 F1500 X78.079 Y107.495
G1 F900 X81.003 Y110.418 E77.21222
G1 X81.073 Y110.488
G0 F1500 X81.399 Y110.248
G1 F900 X81.964 Y110.248 E77.22815
G1 X82.53 Y110.248 E77.24411
G1 X83.096 Y110.248 E77.26006
G1 X83.661 Y110.248 E77.27599
G1 X84.227 Y110.248 E77.29194
G1 X84.793 Y110.248 E77.30789
G1 X85.358 Y110.248 E77.32382
G1 X85.924 Y110.248 E77.33978
G1 X86.49 Y110.248 E77.35573
G1 X87.055 Y110.248 E77.37166
G1 X87.621 Y110.248 E77.38761
G1 X88.187 Y110.248 E77.40356
G1 X88.752 Y110.248 E77.41949
G1 X89.318 Y110.248 E77.43545
G1 X89.884 Y110.248 E77.4514
G1 X90.449 Y110.248 E77.46733
G1 X91.015 Y110.248 E77.48328
G1 X91.581 Y110.248 E77.49923
G1 X92.147 Y110.248 E77.51519
G1 X92.712 Y110.248 E77.53112
G1 X93.278 Y110.248 E77.54707
G1 X93.844 Y110.248 E77.56302
G1 X94.409 Y110.248 E77.57895
G1 X94.975 Y110.248 E77.5949
G1 X95.541 Y110.248 E77.61086
G1 X96.106 Y110.248 E77.62679
G1 X96.672 Y110.248 E77.64274
G1 X97.238 Y110.248 E77.65869
G1 X97.803 Y110.248 E77.67462
G1 X98.369 Y110.248 E77.69057
G1 X98.935 Y110.248 E77.70653
G1 X99.5 Y110.248 E77.72246
G1 X100.066 Y110.248 E77.73841
G1 X100.632 Y110.248 E77.75436
G1 X101.197 Y110.248 E77.77029
G1 X101.763 Y110.248 E77.78624
G1 X102.329 Y110.248 E77.8022
G1 X102.895 Y110.248 E77.81815
G1 X103.46 Y110.248 E77.83408
G1 X104.026 Y110.248 E77.85003
G1 X104.592 Y110.248 E77.86599
G1 X105.157 Y110.248 E77.88191
G1 X105.723 Y110.248 E77.89787
G1 X106.289 Y110.248 E77.91382
G1 X106.854 Y110.248 E77.92975
G1 X107.334 Y110.162 E77.94974
G0 F1500 X108.156 Y110.418
G1 F900 X107.079 Y109.342 E78.00037
G1 X107.009 Y109.272
G0 F1500 X107.079 Y108.776
G1 F900 X108.721 Y110.418 E78.07761
G1 X108.791 Y110.488
G0 F1500 X109.287 Y110.418
G1 F900 X107.079 Y108.21 E78.18147
G1 X107.009 Y108.14
G0 F1500 X107.079 Y107.644
G1 F900 X109.853 Y110.418 E78.31195
G1 X109.923 Y110.488
G0 F1500 X110.418 Y110.418
G1 F900 X107.079 Y107.079 E78.469
G1 X107.009 Y107.009
G0 F1500 X107.079 Y106.513
G1 F900 X110.984 Y110.418 E78.65268
G1 X111.054 Y110.488
G0 F1500 X111.55 Y110.418
G1 F900 X107.079 Y105.947 E78.86299
G1 X107.009 Y105.877
G0 F1500 X107.079 Y105.382
G1 F900 X112.116 Y110.418 E79.09989
G1 X112.186 Y110.488
G0 F1500 X112.681 Y110.418
G1 F900 X107.079 Y104.816 E79.36339
G1 X107.009 Y104.746
G0 F1500 X107.079 Y104.25
G1 F900 X113.247 Y110.418 E79.65351
G1 X113.317 Y110.488
G0 F1500 X113.813 Y110.418
G1 F900 X107.079 Y103.685 E79.97023
G1 X107.009 Y103.615
G0 F1500 X107.079 Y103.119
G1 F900 X114.378 Y110.418 E80.31356
G1 X114.448 Y110.488
G0 F1500 X114.944 Y110.418
G1 F900 X107.079 Y102.553 E80.6835
G1 X107.009 Y102.483
G0 F1500 X107.079 Y101.988
G1 F900 X116.919 Y111.828 E81.14635
G1 X116.989 Y111.898
G0 F1500 X116.919 Y112.393
G1 F900 X115.079 Y110.554 E81.23287
G1 X115.009 Y110.484
G0 F1500 X115.079 Y111.119
G1 F900 X116.92 Y112.96 E81.31947
G1 X116.99 Y113.03
G0 F1500 X116.92 Y113.525
G1 F900 X115.079 Y111.685 E81.40604
G1 X115.009 Y111.615
G0 F1500 X115.079 Y112.251
G1 F900 X116.92 Y114.091 E81.49261
G1 X116.99 Y114.161
G0 F1500 X116.92 Y114.657
G1 F900 X115.079 Y112.816 E81.5792
G1 X115.009 Y112.746
G0 F1500 X115.079 Y113.382
G1 F900 X116.92 Y115.223 E81.6658
G1 X116.99 Y115.293
G0 F1500 X116.92 Y115.788
G1 F900 X115.079 Y113.948 E81.75237
G1 X115.009 Y113.878
G0 F1500 X115.079 Y114.513
G1 F900 X116.92 Y116.354 E81.83896
G1 X116.99 Y116.424
G0 F1500 X116.92 Y116.92
G1 F900 X115.079 Y115.079 E81.92556
G1 X115.009 Y115.009
G0 F1500 X115.079 Y115.645
G1 F900 X116.92 Y117.485 E82.01213
G1 X116.99 Y117.555
G0 F1500 X117.014 Y117.579
G1 F900 X125.853 Y126.419 E82.42791
G1 X125.923 Y126.489
G0 F1500 X125.288 Y126.419
G1 F900 X115.079 Y116.21 E82.90811
G1 X115.009 Y116.14
G0 F1500 X115.079 Y116.776
G1 F900 X124.722 Y126.419 E83.36169
G1 X124.792 Y126.489
G0 F1500 X124.156 Y126.419
G1 F900 X115.079 Y117.342 E83.78865
G1 X115.009 Y117.272
