;FLAVOR:Marlin
;TIME:949
;Filament used: 0.291022m
;Layer height: 0.1
;Generated with Cura_SteamEngine 2.7.0
M190 S60
M104 S200
M109 S200
G28 ;Home
G1 Z15.0 F6000 ;Move the platform down 15mm
;Prime the extruder
G92 E0
G1 F200 E3
G92 E0
;LAYER_COUNT:99
;LAYER:0
M107
G0 F3000 X93.975 Y105.817 Z0.2
;TYPE:SKIRT
G1 F2250 X94.431 Y105.438 E0.01972
G1 X94.934 Y105.124 E0.03944
G1 X95.376 Y104.918 E0.05566
G1 X98.484 Y103.675 E0.167
G1 X103.478 Y101.411 E0.34937
G1 X106.788 Y99.774 E0.47219
G1 X107.336 Y99.547 E0.49192
G1 X107.849 Y99.409 E0.50958
G1 X108.77 Y99.219 E0.54086
G1 X109.357 Y99.138 E0.56057
G1 X109.766 Y99.129 E0.57418
G1 X110.423 Y99.145 E0.59604
G1 X111.191 Y99.232 E0.62174
G1 X112.162 Y99.429 E0.6547
G1 X112.734 Y99.586 E0.67443
G1 X113.223 Y99.79 E0.69205
G1 X117.641 Y101.955 E0.85569
G1 X122.655 Y104.145 E1.03767
G1 X124.589 Y104.904 E1.10677
G1 X125.125 Y105.157 E1.12648
G1 X125.623 Y105.481 E1.14624
G1 X126.072 Y105.868 E1.16596
G1 X126.465 Y106.311 E1.18565
G1 X126.795 Y106.804 E1.20539
G1 X127.056 Y107.337 E1.22512
G1 X127.242 Y107.9 E1.24485
G1 X127.351 Y108.482 E1.26454
G1 X127.382 Y108.984 E1.28127
G1 X127.391 Y111.472 E1.36402
G1 X127.353 Y112.064 E1.38375
G1 X127.236 Y112.645 E1.40346
G1 X127.042 Y113.205 E1.42317
G1 X126.774 Y113.734 E1.4429
G1 X126.438 Y114.223 E1.46263
G1 X126.039 Y114.661 E1.48234
G1 X125.584 Y115.042 E1.50208
G1 X125.083 Y115.359 E1.52179
G1 X124.544 Y115.605 E1.5415
G1 X123.976 Y115.776 E1.56123
G1 X123.39 Y115.87 E1.58097
G1 X122.991 Y115.888 E1.59425
G1 X97.009 Y115.888 E2.45842
G1 X96.417 Y115.848 E2.47815
G1 X95.837 Y115.729 E2.49785
G1 X95.277 Y115.533 E2.51758
G1 X94.749 Y115.263 E2.5373
G1 X94.262 Y114.925 E2.55702
G1 X93.825 Y114.524 E2.57675
G1 X93.445 Y114.069 E2.59646
G1 X93.131 Y113.566 E2.61619
G1 X92.886 Y113.026 E2.63591
G1 X92.717 Y112.457 E2.65565
G1 X92.626 Y111.872 E2.67534
G1 X92.609 Y111.486 E2.68819
G1 X92.61 Y109.001 E2.77084
G1 X92.65 Y108.41 E2.79055
G1 X92.77 Y107.829 E2.81028
G1 X92.966 Y107.269 E2.83001
G1 X93.236 Y106.741 E2.84974
G1 X93.574 Y106.254 E2.86945
G1 X93.975 Y105.817 E2.88918
G0 F3000 X94.367 Y106
G1 F2250 X94.817 Y105.658 E2.90798
G1 X95.525 Y105.289 E2.93453
G1 X98.638 Y104.044 E3.04604
G1 X103.641 Y101.775 E3.22876
G1 X106.965 Y100.132 E3.35208
G1 X107.489 Y99.918 E3.37091
G1 X107.93 Y99.8 E3.38609
G1 X108.851 Y99.61 E3.41737
G1 X109.411 Y99.536 E3.43616
G1 X109.756 Y99.529 E3.44764
G1 X110.413 Y99.545 E3.46949
G1 X111.111 Y99.624 E3.49286
G1 X112.082 Y99.821 E3.52581
G1 X112.627 Y99.972 E3.54462
G1 X113.047 Y100.149 E3.55978
G1 X117.466 Y102.314 E3.72345
G1 X122.506 Y104.516 E3.90638
G1 X124.443 Y105.276 E3.97559
G1 X124.954 Y105.52 E3.99442
G1 X125.425 Y105.832 E4.01321
G1 X125.847 Y106.208 E4.03201
G1 X126.212 Y106.64 E4.05082
G1 X126.512 Y107.119 E4.06962
G1 X126.742 Y107.635 E4.08841
G1 X126.897 Y108.179 E4.10722
G1 X126.982 Y108.986 E4.13421
G1 X126.991 Y111.474 E4.21696
G1 X126.953 Y112.038 E4.23576
G1 X126.836 Y112.591 E4.25457
G1 X126.642 Y113.122 E4.27337
G1 X126.375 Y113.62 E4.29216
G1 X126.041 Y114.076 E4.31096
G1 X125.646 Y114.48 E4.32975
G1 X125.197 Y114.824 E4.34857
G1 X124.705 Y115.102 E4.36736
G1 X124.178 Y115.308 E4.38618
G1 X123.628 Y115.437 E4.40497
G1 X122.991 Y115.488 E4.42623
G1 X97.009 Y115.488 E5.29039
G1 X96.445 Y115.448 E5.3092
G1 X95.892 Y115.329 E5.32801
G1 X95.362 Y115.133 E5.34681
G1 X94.865 Y114.865 E5.36559
G1 X94.41 Y114.529 E5.3844
G1 X94.007 Y114.132 E5.40321
G1 X93.665 Y113.682 E5.42201
G1 X93.389 Y113.189 E5.4408
G1 X93.185 Y112.661 E5.45963
G1 X93.058 Y112.111 E5.47841
G1 X93.009 Y111.486 E5.49926
G1 X93.01 Y109.001 E5.58191
G1 X93.05 Y108.437 E5.60071
G1 X93.169 Y107.885 E5.6195
G1 X93.365 Y107.355 E5.63829
G1 X93.634 Y106.857 E5.65712
G1 X93.97 Y106.403 E5.6759
G1 X94.367 Y106 E5.69472
G0 F3000 X94.758 Y106.194
G1 F2250 X95.2 Y105.891 E5.71254
G1 X95.673 Y105.66 E5.73005
G1 X98.799 Y104.41 E5.84202
G1 X103.841 Y102.123 E6.02617
G1 X107.143 Y100.491 E6.14867
G1 X107.64 Y100.29 E6.1665
G1 X108.011 Y100.192 E6.17927
G1 X108.932 Y100.002 E6.21054
G1 X109.463 Y99.933 E6.22835
G1 X109.747 Y99.929 E6.2378
G1 X110.404 Y99.945 E6.25966
G1 X111.032 Y100.016 E6.28068
G1 X112.003 Y100.213 E6.31363
G1 X112.519 Y100.358 E6.33146
G1 X112.871 Y100.508 E6.34419
G1 X117.309 Y102.682 E6.50855
G1 X122.357 Y104.888 E6.69178
G1 X124.297 Y105.649 E6.76109
G1 X124.78 Y105.881 E6.77892
G1 X125.224 Y106.183 E6.79678
G1 X125.617 Y106.547 E6.81459
G1 X125.952 Y106.966 E6.83244
G1 X126.222 Y107.43 E6.85029
G1 X126.419 Y107.929 E6.86813
G1 X126.54 Y108.451 E6.88596
G1 X126.582 Y108.987 E6.90384
G1 X126.591 Y111.475 E6.98659
G1 X126.553 Y112.01 E7.00443
G1 X126.436 Y112.533 E7.02225
G1 X126.242 Y113.033 E7.04009
G1 X125.977 Y113.499 E7.05792
G1 X125.645 Y113.921 E7.07578
G1 X125.254 Y114.288 E7.09362
G1 X124.813 Y114.593 E7.11145
G1 X124.332 Y114.829 E7.12927
G1 X123.82 Y114.991 E7.14713
G1 X123.291 Y115.076 E7.16495
G1 X122.991 Y115.088 E7.17494
G1 X97.009 Y115.088 E8.0391
G1 X96.474 Y115.048 E8.05695
G1 X95.951 Y114.929 E8.07479
G1 X95.452 Y114.734 E8.09261
G1 X94.987 Y114.466 E8.11046
G1 X94.567 Y114.133 E8.12828
G1 X94.201 Y113.741 E8.14612
G1 X93.898 Y113.299 E8.16394
G1 X93.663 Y112.816 E8.18181
G1 X93.503 Y112.305 E8.19962
G1 X93.42 Y111.775 E8.21746
G1 X93.409 Y111.487 E8.22705
G1 X93.41 Y109.002 E8.3097
G1 X93.45 Y108.467 E8.32754
G1 X93.569 Y107.944 E8.34538
G1 X93.765 Y107.445 E8.36321
G1 X94.032 Y106.98 E8.38105
G1 X94.366 Y106.56 E8.3989
G1 X94.758 Y106.194 E8.41673
G0 F3000 X95.147 Y106.401
G1 F2250 X95.58 Y106.14 E8.43355
G1 X95.822 Y106.032 E8.44236
G1 X98.953 Y104.78 E8.55452
G1 X103.98 Y102.5 E8.73811
G1 X107.32 Y100.849 E8.86203
G1 X107.789 Y100.662 E8.87882
G1 X108.091 Y100.584 E8.8892
G1 X109.012 Y100.394 E8.92048
G1 X109.737 Y100.329 E8.94469
G1 X110.394 Y100.345 E8.96654
G1 X110.952 Y100.408 E8.98522
G1 X111.923 Y100.605 E9.01817
G1 X112.409 Y100.744 E9.03499
G1 X112.695 Y100.867 E9.04534
G1 X117.152 Y103.051 E9.21042
G1 X122.186 Y105.25 E9.39313
G1 X124.151 Y106.021 E9.46334
G1 X124.606 Y106.242 E9.48016
G1 X125.02 Y106.533 E9.49699
G1 X125.383 Y106.884 E9.51379
G1 X125.686 Y107.289 E9.53061
G1 X125.922 Y107.736 E9.54742
G1 X126.084 Y108.215 E9.56424
G1 X126.169 Y108.713 E9.58105
G1 X126.182 Y108.988 E9.5902
G1 X126.191 Y111.476 E9.67295
G1 X126.153 Y111.981 E9.6898
G1 X126.036 Y112.472 E9.70659
G1 X125.843 Y112.94 E9.72342
G1 X125.579 Y113.371 E9.74023
G1 X125.25 Y113.755 E9.75705
G1 X124.865 Y114.082 E9.77385
G1 X124.433 Y114.345 E9.79067
G1 X123.965 Y114.536 E9.80749
G1 X123.472 Y114.652 E9.82433
G1 X122.991 Y114.688 E9.84037
G1 X97.009 Y114.688 E10.70454
G1 X96.505 Y114.648 E10.72135
G1 X96.014 Y114.529 E10.73816
G1 X95.547 Y114.335 E10.75498
G1 X95.117 Y114.069 E10.77179
G1 X94.734 Y113.739 E10.78861
G1 X94.408 Y113.352 E10.80544
G1 X94.147 Y112.919 E10.82226
G1 X93.957 Y112.451 E10.83905
G1 X93.844 Y111.958 E10.85588
G1 X93.809 Y111.487 E10.87159
G1 X93.81 Y109.002 E10.95424
G1 X93.85 Y108.498 E10.97105
G1 X93.969 Y108.006 E10.98789
G1 X94.164 Y107.54 E11.00469
G1 X94.43 Y107.11 E11.02151
G1 X94.76 Y106.727 E11.03832
G1 X95.147 Y106.401 E11.05515
G1 F2700 E4.55515
G0 F3000 X98 Y109.997
;TYPE:WALL-INNER
G1 F2700 E11.05515
G1 F2250 X107.341 Y109.997 E11.36584
G1 X107.602 Y109.997 E11.37452
G1 X107.534 Y109.745 E11.37976
G1 X107.402 Y109.26 E11.39647
G1 X107.241 Y108.672 E11.41675
G1 X107.537 Y109.222 E11.42069
G1 X107.871 Y109.596 E11.43208
G1 X108.229 Y109.997 E11.44996
G1 X111.763 Y109.997 E11.5675
G1 X112.124 Y109.602 E11.5853
G1 X112.422 Y109.276 E11.59999
G1 X112.743 Y108.725 E11.6212
G1 X112.902 Y108.234 E11.63836
G1 X112.742 Y108.724 E11.63837
G1 X112.548 Y109.316 E11.64198
G1 X112.41 Y109.736 E11.65187
G1 X112.325 Y109.997 E11.661
G1 X112.599 Y109.997 E11.66643
G1 X112.6 Y109.997 E11.66646
G1 X122 Y109.997 E11.97911
G1 X122 Y110.497 E11.99574
G1 X98 Y110.497 E12.79398
G1 X98 Y109.997 E12.81061
G1 F2700 E6.31061
G0 F3000 X112.963 Y107.885
G1 F2700 E12.81061
G1 F2250 X112.988 Y107.655 E12.81831
G1 X112.973 Y107.885
G1 X112.954 Y107.978 E12.82143
G1 X112.963 Y107.885
G1 F2700 E6.32143
G0 F3000 X112.878 Y109.597
G1 F2700 E12.82143
G1 F2250 X113.153 Y109.597 E12.83058
G1 X113.154 Y109.597 E12.83061
G1 X122.4 Y109.597 E13.13814
G1 X122.4 Y110.897 E13.18137
G1 X97.6 Y110.897 E14.00623
G1 X97.6 Y109.597 E14.04946
G1 X106.817 Y109.597 E14.35602
G1 X106.818 Y109.597 E14.35606
G1 X107.078 Y109.597 E14.3647
G1 X107.01 Y109.346 E14.36992
G1 X106.643 Y108.001 E14.41629
G1 X106.617 Y107.205 E14.44278
G1 X106.777 Y106.427 E14.4692
G1 X107.113 Y105.709 E14.49556
G1 X107.608 Y105.087 E14.522
G1 X108.231 Y104.6 E14.5483
G1 X108.959 Y104.267 E14.57493
G1 X109.734 Y104.115 E14.6012
G1 X110.559 Y104.149 E14.62866
G1 X111.312 Y104.365 E14.65471
G1 X112.009 Y104.761 E14.68138
G1 X112.588 Y105.298 E14.70764
G1 X113.029 Y105.963 E14.73418
G1 X113.302 Y106.707 E14.76054
G1 X113.398 Y107.512 E14.7875
G1 X113.37 Y107.938 E14.8017
G1 X113.283 Y108.369 E14.81633
G1 X112.964 Y109.335 E14.85016
G1 X112.878 Y109.597 E14.85562
G1 F2700 E8.35562
G0 F3000 X111.587 Y109.597
G1 F2700 E14.85562
G1 F2250 X112.098 Y109.038 E14.88081
G1 X112.376 Y108.561 E14.89917
G1 X112.546 Y108.037 E14.91749
G1 X112.603 Y107.494 E14.93565
G1 X112.533 Y106.892 E14.95581
G1 X112.323 Y106.32 E14.97608
G1 X111.984 Y105.811 E14.99642
G1 X111.538 Y105.395 E15.0167
G1 X111.006 Y105.095 E15.03701
G1 X110.42 Y104.927 E15.05729
G1 X109.81 Y104.9 E15.0776
G1 X109.221 Y105.014 E15.09755
G1 X108.666 Y105.261 E15.11776
G1 X108.181 Y105.634 E15.13811
G1 X107.799 Y106.108 E15.15836
G1 X107.536 Y106.657 E15.1786
G1 X107.409 Y107.253 E15.19887
G1 X107.422 Y107.862 E15.21913
G1 X107.578 Y108.454 E15.23949
G1 X107.867 Y108.991 E15.25978
G1 X108.408 Y109.597 E15.28679
G1 X111.587 Y109.597 E15.39253
G0 F3000 X111.411 Y109.197
;TYPE:WALL-OUTER
G1 F2250 X111.774 Y108.8 E15.41042
G1 X112.009 Y108.397 E15.42594
G1 X112.153 Y107.953 E15.44146
G1 X112.201 Y107.496 E15.45674
G1 X112.141 Y106.985 E15.47386
G1 X111.964 Y106.502 E15.49097
G1 X111.677 Y106.072 E15.50816
G1 X111.3 Y105.72 E15.52532
G1 X110.851 Y105.467 E15.54246
G1 X110.355 Y105.325 E15.55962
G1 X109.839 Y105.302 E15.5768
G1 X109.342 Y105.398 E15.59363
G1 X108.872 Y105.607 E15.61074
G1 X108.463 Y105.922 E15.62791
G1 X108.14 Y106.323 E15.64504
G1 X107.917 Y106.787 E15.66216
G1 X107.81 Y107.291 E15.6793
G1 X107.821 Y107.806 E15.69643
G1 X107.953 Y108.306 E15.71363
G1 X108.197 Y108.76 E15.73077
G1 X108.587 Y109.197 E15.75025
G1 X111.411 Y109.197 E15.84418
G0 F3000 X111.546 Y109.05
G1 F2700 E9.34418
G0 F3000 X113.431 Y109.197
G1 F2700 E15.84418
G1 F2250 X113.706 Y109.197 E15.85333
G1 X113.707 Y109.197 E15.85336
G1 X122.8 Y109.197 E16.15579
G1 X122.8 Y111.297 E16.22564
G1 X97.2 Y111.297 E17.0771
G1 X97.2 Y109.197 E17.14695
G1 X106.293 Y109.197 E17.44938
G1 X106.294 Y109.197 E17.44941
G1 X106.554 Y109.197 E17.45806
G1 X106.486 Y108.946 E17.46328
G1 X106.244 Y108.06 E17.49382
G1 X106.216 Y107.171 E17.52341
G1 X106.394 Y106.301 E17.55294
G1 X106.771 Y105.497 E17.58248
G1 X107.324 Y104.802 E17.61202
G1 X108.025 Y104.254 E17.64161
G1 X108.835 Y103.883 E17.67124
G1 X109.703 Y103.713 E17.70066
G1 X110.62 Y103.751 E17.73119
G1 X111.47 Y103.995 E17.7606
G1 X112.247 Y104.436 E17.79032
G1 X112.894 Y105.037 E17.81969
G1 X113.388 Y105.781 E17.84939
G1 X113.694 Y106.614 E17.87891
G1 X113.799 Y107.502 E17.90865
G1 X113.767 Y107.991 E17.92495
G1 X113.67 Y108.473 E17.9413
G1 X113.517 Y108.935 E17.95749
G1 X113.431 Y109.197 E17.96294
G0 F3000 X113.631 Y109.197
G1 F2700 E11.46294
G0 F3000 X113.64 Y110.246
G1 F2700 E17.96294
G1 F2250 X113.923 Y110.246 E17.96553
G1 X114.206 Y110.246 E17.96812
G1 X114.489 Y110.246 E17.9707
G1 X114.772 Y110.246 E17.97329
G1 X115.054 Y110.246 E17.97587
G1 X115.337 Y110.246 E17.97846
G1 X115.62 Y110.246 E17.98105
G1 X115.903 Y110.246 E17.98364
G1 X116.186 Y110.246 E17.98623
G1 X116.469 Y110.246 E17.98882
G1 X116.751 Y110.246 E17.99139
G1 X117.034 Y110.246 E17.99398
G1 X117.317 Y110.246 E17.99657
G1 X117.6 Y110.246 E17.99916
G1 X117.883 Y110.246 E18.00175
G1 X118.166 Y110.246 E18.00434
G1 X118.449 Y110.246 E18.00693
G1 X118.731 Y110.246 E18.0095
G1 X119.014 Y110.246 E18.01209
G1 X119.297 Y110.246 E18.01468
G1 X119.58 Y110.246 E18.01727
G1 X119.863 Y110.246 E18.01986
G1 X120.146 Y110.246 E18.02245
G1 X120.428 Y110.246 E18.02503
G1 X120.711 Y110.246 E18.02761
G1 X120.994 Y110.246 E18.0302
G1 X121.277 Y110.246 E18.03279
G1 X121.56 Y110.246 E18.03538
G1 F2700 E11.53538
G0 F3000 X113.357 Y110.246
G1 F2700 E18.03538
G1 F2250 X113.075 Y110.246 E18.03796
G1 X112.792 Y110.246 E18.04055
G1 X112.509 Y110.246 E18.04314
G1 X112.226 Y110.246 E18.04572
G0 F3000 X112.043 Y110.063
G1 F2250 X111.932 Y110.235 E18.04823
G1 X111.66 Y110.246 E18.05103
G1 X111.377 Y110.246 E18.05362
G1 X111.095 Y110.246 E18.0562
G1 X110.812 Y110.246 E18.05879
G1 X110.529 Y110.246 E18.06138
G1 X110.246 Y110.246 E18.06397
G1 X109.963 Y110.246 E18.06656
G1 X109.68 Y110.245 E18.0691
G1 X109.397 Y110.245 E18.07166
G1 X109.114 Y110.245 E18.07423
G1 X108.831 Y110.245 E18.07679
G1 X108.548 Y110.245 E18.07936
G1 X108.266 Y110.245 E18.08191
G1 X107.933 Y110.196 E18.08563
G1 X107.7 Y110.245 E18.08934
G1 X107.417 Y110.245 E18.0919
G1 X107.134 Y110.245 E18.09447
G1 X106.851 Y110.245 E18.09703
G1 X106.568 Y110.245 E18.0996
G1 X106.286 Y110.245 E18.10215
G1 X106.003 Y110.245 E18.10472
G1 X105.72 Y110.245 E18.10728
G1 X105.437 Y110.245 E18.10985
G1 X105.154 Y110.245 E18.11241
G1 X104.871 Y110.245 E18.11498
G1 X104.589 Y110.245 E18.11753
G1 X104.306 Y110.245 E18.1201
G1 X104.023 Y110.245 E18.12266
G1 X103.74 Y110.245 E18.12523
G1 X103.457 Y110.245 E18.12779
G1 X103.174 Y110.245 E18.13036
G1 X102.891 Y110.245 E18.13292
G1 X102.609 Y110.245 E18.13548
G1 X102.326 Y110.245 E18.13804
G1 X102.043 Y110.245 E18.14061
G1 X101.76 Y110.245 E18.14317
G1 X101.477 Y110.245 E18.14574
G1 X101.194 Y110.245 E18.1483
G1 X100.912 Y110.245 E18.15086
G1 X100.629 Y110.245 E18.15342
G1 X100.346 Y110.245 E18.15599
G1 X100.063 Y110.245 E18.15855
G1 X99.78 Y110.245 E18.16112
G1 X99.497 Y110.245 E18.16368
G1 X99.215 Y110.245 E18.16624
G1 X98.932 Y110.245 E18.1688
G1 X98.649 Y110.245 E18.17137
G1 X98.366 Y110.245 E18.17393
G1 F2700 E11.67393
G0 F3000 X107.075 Y108.207
G1 F2700 E18.17393
G1 F2250 X107.027 Y108.441 E18.18158
G0 F3000 X107.06 Y107.909
G1 F2250 X107.021 Y107.587 E18.19186
G1 X107.026 Y107.309 E18.2012
G1 X107.049 Y107.049 E18.20968
G1 X107.098 Y106.815 E18.21758
G1 X107.154 Y106.588 E18.22537
G1 X107.23 Y106.381 E18.23269
G1 X107.321 Y106.189 E18.2397
G1 X107.412 Y105.998 E18.24674
G1 X107.521 Y105.824 E18.25358
G1 X107.647 Y105.668 E18.26024
G1 X107.773 Y105.51 E18.26693
G1 X107.901 Y105.355 E18.27358
G1 X108.059 Y105.231 E18.28021
G1 X108.219 Y105.108 E18.28685
G1 X108.378 Y104.984 E18.29353
G1 X108.558 Y104.881 E18.30035
G1 X108.753 Y104.793 E18.30736
G1 X108.947 Y104.704 E18.31437
G1 X109.156 Y104.631 E18.32174
G1 X109.39 Y104.582 E18.32955
G1 X109.626 Y104.535 E18.33747
G1 X109.892 Y104.518 E18.34609
G1 X110.182 Y104.525 E18.35555
G1 X110.517 Y104.577 E18.36609
G1 X110.893 Y104.671 E18.37914
G0 F3000 X111.464 Y104.675
;TYPE:SKIN
G1 F2250 X112.859 Y106.071 E18.41196
G0 F3000 X112.825 Y106.603
G1 F2250 X112.926 Y106.987 E18.42481
G1 X112.947 Y107.29 E18.43506
G1 X112.811 Y107.437 E18.44021
G1 F2700 E11.94021
G0 F3000 X113.025 Y106.519
G1 F2700 E18.44021
G1 F2250 X110.977 Y104.472 E18.48836
G1 F2700 E11.98836
G0 F3000 X98 Y109.997
;TIME_ELAPSED:21.981383
;LAYER:1
M140 S60
M106 S104
G0 F4500 X98 Y109.997 Z0.3
;TYPE:WALL-INNER
G1 F2700 E18.48836
G1 F2025 X107.341 Y109.997 E18.6437
G1 X107.342 Y109.997 E18.64372
G1 X107.602 Y109.997 E18.64804
G1 X107.534 Y109.746 E18.65065
G1 X107.4 Y109.256 E18.6591
G1 X107.239 Y108.669 E18.66922
G1 X107.535 Y109.219 E18.67118
G1 X107.872 Y109.597 E18.67692
G1 X108.229 Y109.997 E18.68584
G1 X111.765 Y109.997 E18.74464
G1 X112.126 Y109.6 E18.75357
G1 X112.423 Y109.273 E18.76091
G1 X112.745 Y108.721 E18.77154
G1 X112.888 Y108.274 E18.77935
G1 X112.901 Y108.233 E18.78006
G1 X112.893 Y108.275
G1 X112.747 Y108.72 E18.78013
